X:1
T:O come let us lift up our voice
T:O come let us lift up our voice (John Wainwright)
C:John Wainwright
Z:p16, A Collection of
Z:Psalm Tunes, Anthems,
Z:Hymns and Chants,
Z:London: [1766]
%%score [ 1 2 3 4 ]
L:1/8
M:3/2
K:A
V:1 treble nm="SOPRANO" snm="S."
V:2 treble nm="ALTO" snm="A."
V:3 treble-8 transpose=-12 nm="TENOR" snm="T."
V:4 bass nm="BASS" snm="B."
V:1
 z4 | z12 | z12 | z12 | z8 G4 | A8 A4 | A8 G4 | A8 c4 | (c4 B4) (A2 =G2) | F8 d4 | %10
w: ||||And|sing un-|to the|Lord; In|him, _ our _|rock of|
w: ||||A|great and|migh- ty|God, A|king _ a- *|bove all|
 (d4 c4) (B2 A2) | G8 G4 | (A4 B4) c4 | (3(d2 c2 B2) (A4 G4) | A8 z4 | z12 | z12 | z12 | z12 | %19
w: health _ re- *|joice Let|us _ with|one _ _ ac- *|cord.|||||
w: gods _ through- *|out, In|all _ the|world _ _ a- *|broad.|||||
 z12 | z12 | z12 | A4 A4 A4 | A8 e4 | d8 c4 | B8 B4 | (c3 B c4) G4 | (A3 B c4) B4 | A8 |] %29
w: |||In sing- ing|psalms un-|to his|grace Let|us _ _ be|glad _ _ al-|ways.|
w: |||And kneel to|him with|one ac-|cord, For|he _ _ hath|made _ _ us|all.|
V:2
 z4 | z12 | z12 | z12 | z8 E4 | C8 (F2 E2) | (F4 B,4) E4 | E8 E4 | (E4 D4) E4 | F8 F4 | %10
w: ||||And|sing un- *|to _ the|Lord; In|him, _ our|rock of|
w: ||||A|great and _|migh- * ty|God, A|king _ a-|bove all|
 (F2 G2 A4) F4 | E8 E4 | E8 E4 | (3(F2 E2 D2) (C4 B,4) | C8 z4 | z12 | z12 | z12 | z12 | z12 | %20
w: health _ _ re-|joice Let|us with|one _ _ ac- *|cord.||||||
w: gods _ _ through-|out, In|all the|world _ _ a- *|broad.||||||
 z12 | z12 | E4 E4 E4 | F8 A4 | F8 E4 | E8 E4 | E8 E4 | E8 (E2 D2) | C8 |] %29
w: ||In sing- ing|psalms un-|to his|grace Let|us be|glad al- *|ways.|
w: ||And kneel to|him with|one ac-|cord, For|he hath|made us _|all.|
V:3
 E4 | (A3 G A4) B4 | (c3 B c4) B4 | (ABcd e4) (d2 c2) | (c4 B4) B4 | A8 (B2 c2) | (d4 e4) B4 | %7
w: O|come _ _ let|us _ _ lift|up _ _ _ _ our _|voice, _ And|sing un- *|to _ the|
w: For|why? _ _ the|Lord _ _ he|is _ _ _ _ no _|doubt _ A|great and _|migh- * ty|
 c8 A4 | (A4 G4) (c2 B2) | A8 A4 | (B4 e4) (d2 c2) | B8 z4 | z12 | z12 | z8 A4 | %15
w: Lord; In|him, _ our _|rock of|health _ re- *|joice|||Yea|
w: God, A|king _ a- *|bove all|gods _ through- *|out,|||Come|
 (c3 B A4) (3G2 A2 B2 | A8 G4 | (AB c6) B4 | c8 (c2 G2) | (A4 B4) (3(c2 d2 e2) | %20
w: let _ _ us _ _|come be-|fore _ _ his|face To _|give _ him _ _|
w: let _ _ us _ _|bow and|praise _ _ the|Lord, Be- *|fore _ him _ _|
 (3(d2 c2 B2) (A4 G4) | A8 z4 | c4 c4 c4 | d8 c4 | (B4 A4) A4 | G8 G4 | (A3 G A4) B4 | %27
w: thanks _ _ and _|praise:|In sing- ing|psalms un-|to _ his|grace Let|us _ _ be|
w: let _ _ us _|fall,|And kneel to|him with|one _ ac-|cord, For|he _ _ hath|
 (c3 B A4) G4 | A8 |] %29
w: glad _ _ al-|ways.|
w: made _ _ us|all.|
V:4
 A,,4 | A,,8 E,4 | (A,3 G, A,4)"^6" G,4 | (F,2 E,D,"^6" C,4)"^6" (B,,2 A,,2) | E,8 E,4 | %5
w: O|come let|us _ _ lift|up _ _ _ our _|voice, And|
w: For|why? the|Lord _ _ he|is _ _ _ no _|doubt A|
 (F,3 G, A,G,F,E,) (D,2 C,2) | %6
w: sing _ _ _ _ _ un- *|
w: great _ _ _ _ _ and _|
"^Notes: Only the text of the first verse (comprising verses 1 and 2 of the psalm) is given in the source:the second verse (verses 3 and 6 of the psalm) has been added editorially, on the basis of the heading'Verses the 1st. 2d. 3d. & 6th' in the source. Original clefs treble, alto, tenor, bass. The first two notes ofthe tenor part in bar 4 are printed in the source as a small crotchet grace-note slurred to a full-sizedsemibreve, and have been expanded editorially. Bar 21 has only 2 beats in the source: the minim reston beat 3 of this bar has been added editorially.""^6" F,4"^4""^3" E,8 | %7
w: to the|
w: migh- ty|
 A,,8 A,,4 | (A,,4"^6" B,,4)"^6" C,4 | D,8 D,4 |"^5""^6" (B,,4"^6" C,4)"^86""^75" D,4 | E,8 E,4 | %12
w: Lord; In|him, _ our|rock of|health _ re-|joice Let|
w: God, A|king _ a-|bove all|gods _ through-|out, In|
"^7" (F,4"^6" G,4) A,4 |"^6" D,4"^64""^53" E,8 | A,,8 F,4 |"^6" (A,3 G, F,4)"^#" C,4 | %16
w: us _ with|one ac-|cord. Yea|let _ _ us|
w: all _ the|world a-|broad. Come|let _ _ us|
 F,8"^6" ^E,4 | (F,2"^6" E,2)"^7""^6" D,8 |"^#" C,8 C,4 | (F,4 E,4) A,,4 |"^6" D,4"^64""^53" E,8 | %21
w: come be-|fore _ his|face To|give _ him|thanks and|
w: bow and|praise _ the|Lord, Be-|fore _ him|let us|
 A,,8 z4 | A,4 A,4"^42" =G,4 |"^6" F,8"^6" C,4 |"^6""^5" D,8 A,,4 | E,8 E,4 |"^6" (C,4 A,,4) E,4 | %27
w: praise:|In sing- ing|psalms un-|to his|grace Let|us _ be|
w: fall,|And kneel to|him with|one ac-|cord, For|he _ hath|
"^6" (C,3 D,"^64" E,4)"^53" E,4 | A,,8 |] %29
w: glad _ _ al-|ways.|
w: made _ _ us|all.|

